X: 40050
T: Throw Away The Keys
R: reel
M: 4/4
K: Dmajor
~A3B defa|~a2fd efdB|~A2AB defe|dBAF EFD2:|
~a3f defa|~a2fd efd2|~a3f defe|dBAF EFD2|
~a3f defg|adfd efdB|~A2AB defe|dBAF EFD2||

